wp-content/themes/earthandcity/assets/images/Icons/systems_thinking_illu.svg

<?xml version="1.0" encoding="UTF-8"?>
<svg width="204px" height="192px" viewBox="0 0 204 192" version="1.1" xmlns="http://www.w3.org/2000/svg" xmlns:xlink="http://www.w3.org/1999/xlink">
    <!-- Generator: Sketch 42 (36781) - http://www.bohemiancoding.com/sketch -->
    <title>systems_thinking_illu</title>
    <desc>Created with Sketch.</desc>
    <defs></defs>
    <g id="Page-1" stroke="none" stroke-width="1" fill="none" fill-rule="evenodd">
        <g id="ui_illustrations" transform="translate(-607.000000, -5.000000)">
            <g id="systems_thinking_illu" transform="translate(607.000000, 5.000000)">
                <g id="Capa_1" fill-rule="nonzero" fill="#509DBE">
                    <g id="Group">
                        <path d="M91.8408974,108.00171 C95.960821,105.418748 99.6922196,102.26858 102.925547,98.6572214 L114.582272,105.411908 L125.196115,86.9642748 L113.562759,80.2242443 C115.041881,75.6929466 115.911924,70.8865954 116.075026,65.9043664 L129.309709,63.5627481 L125.622129,42.5854046 L112.389881,44.9270229 C110.561184,40.3791145 108.107828,36.150229 105.132544,32.3498015 L113.782339,22.0072061 L97.5207637,8.3160916 L88.8782721,18.6498931 C84.6570788,16.3800916 80.0858234,14.6833588 75.26821,13.6652214 L75.26821,0.188091603 L54.0405251,0.188091603 L54.0405251,13.6652214 C49.2224248,14.6833588 44.6511695,16.3800916 40.4294893,18.6498931 L31.7874845,8.3160916 L15.5259093,22.0076947 L24.1747303,32.3502901 C21.1999332,36.1507176 18.7465776,40.3800916 16.9178807,44.9275115 L3.68563246,42.5858931 L0,63.5632366 L13.2327351,65.904855 C13.3958377,70.8875725 14.2663675,75.6929466 15.7454893,80.2257099 L4.1111599,86.9652519 L14.7254893,105.412397 L26.3827017,98.6596641 C29.6150549,102.269557 33.3464535,105.420214 37.466864,108.003176 L32.8654224,120.687389 L52.8136038,127.971664 L57.408716,115.30455 C59.7768687,115.640672 62.1951695,115.818992 64.6543675,115.818992 C67.1135656,115.818992 69.5323532,115.641649 71.900506,115.30455 L76.4951313,127.972641 L96.4423389,120.686412 L91.8408974,108.00171 Z M64.6533938,91.3905344 C49.7054033,91.3905344 37.5442768,79.1880305 37.5442768,64.1880916 C37.5442768,49.1891298 49.7054033,36.9856489 64.6533938,36.9856489 C79.6013842,36.9856489 91.7625107,49.1891298 91.7625107,64.1880916 C91.7625107,79.1880305 79.6018711,91.3905344 64.6533938,91.3905344 Z" id="Shape"></path>
                        <path d="M183.084401,123.997313 L173.933613,126.967695 C172.188659,123.924519 170.031809,121.169099 167.548267,118.770321 L172.662387,110.580275 L159.786043,102.485008 L154.674845,110.668214 C151.459532,109.47713 148.052391,108.727206 144.535217,108.483908 L143.208487,98.9283664 L128.158253,101.033527 L129.484983,110.589069 C126.169862,111.787481 123.094768,113.445618 120.325919,115.472611 L113.182511,109.00226 L103.001012,120.320977 L110.150263,126.798656 C108.416019,129.787603 107.094158,133.028641 106.245537,136.435786 L96.6327064,136.086962 L96.0830263,151.323847 L105.69537,151.673649 C106.302014,155.190229 107.392611,158.508947 108.888286,161.577038 L101.303771,167.509496 L110.644439,179.535145 L118.244048,173.592427 C120.891666,175.830962 123.848449,177.69429 127.022864,179.118412 L125.008181,188.568916 L139.868535,191.75426 L141.880783,182.318412 C143.59263,182.323298 145.323952,182.206534 147.066959,181.963237 C148.81094,181.719939 150.509155,181.35255 152.153327,180.881099 L156.659828,189.406779 L170.084878,182.262718 L165.573508,173.727267 C168.241575,171.486779 170.574186,168.881832 172.51243,166.002321 L181.440716,169.635176 L187.150282,155.504366 L178.239036,151.878351 C178.839838,148.519573 178.983465,145.025466 178.611007,141.475664 L187.763742,138.503328 L183.084401,123.997313 Z M144.664239,164.644153 C134.064516,166.124947 124.240382,158.67945 122.764668,148.044702 C121.286033,137.409466 128.707933,127.550534 139.307169,126.070229 C149.905432,124.586992 159.727131,132.033954 161.20674,142.670168 C162.68148,153.304427 155.262014,163.160427 144.664239,164.644153 Z" id="Shape"></path>
                        <path d="M203.58421,71.1557863 L203.940601,59.1232977 L196.352191,58.8970992 C195.876516,56.2452519 195.026434,53.6192977 193.779064,51.0944733 L199.738396,46.3701985 L192.303351,36.9265344 L186.344993,41.648855 C184.21979,39.8768855 181.869165,38.4322443 179.373938,37.3418015 L180.914406,29.8713893 L169.169556,27.4305954 L167.626167,34.8961221 C164.919637,34.9000305 162.194606,35.2854962 159.524105,36.0745038 L155.925623,29.3681832 L145.362902,35.0763969 L148.961384,41.7836947 C146.837155,43.5844885 145.014301,45.6598473 143.520086,47.9228092 L136.462368,45.1038779 L132.026463,56.2882443 L139.090024,59.1115725 C138.62506,61.8025038 138.534501,64.5628092 138.839771,67.3187176 L131.629661,69.7116336 L135.394167,81.1412519 L142.604277,78.749313 C144.01621,81.1852214 145.732926,83.3397252 147.68042,85.1986565 L143.692439,91.6807328 L153.898768,98.0054962 L157.895513,91.5116947 C160.46864,92.4379847 163.167379,93.0022595 165.906043,93.1796031 L167.002482,100.72916 L178.873919,98.9894351 L177.780401,91.4491603 C179.047246,90.9816183 180.297537,90.4188092 181.521537,89.757313 C182.746511,89.0967939 183.902835,88.3566412 184.989537,87.5539542 L190.66064,92.6207023 L198.639036,83.6323664 L192.964038,78.5597557 C194.32485,76.1658626 195.337547,73.5941374 195.984115,70.9290992 L203.58421,71.1557863 Z M174.999866,77.6031756 C167.559952,81.6224733 158.24947,78.8206412 154.245909,71.3580458 C150.23894,63.8944733 153.031647,54.5499847 160.471561,50.5326412 C167.90758,46.5123664 177.217575,49.3161527 181.224544,56.7797252 C185.227618,64.2437863 182.436859,73.5833893 174.999866,77.6031756 Z" id="Shape"></path>
                    </g>
                </g>
                <circle id="Oval-6" stroke="#509DBE" stroke-width="3" cx="64.5" cy="64.5" r="20.5"></circle>
                <circle id="Oval-6-Copy" stroke="#509DBE" stroke-width="3" cx="168" cy="64" r="9"></circle>
            </g>
        </g>
    </g>
</svg>

<?xml version="1.0" encoding="utf-8"?>
<!-- Generator: Adobe Illustrator 21.0.2, SVG Export Plug-In . SVG Version: 6.00 Build 0)  -->
<svg version="1.1" id="Layer_1" xmlns="http://www.w3.org/2000/svg" xmlns:xlink="http://www.w3.org/1999/xlink" x="0px" y="0px"
	 viewBox="0 0 204 192" style="enable-background:new 0 0 204 192;" xml:space="preserve">
<style type="text/css">
	.st0{stroke:#FFFFFF;stroke-miterlimit:10;}
</style>
<title>systems_thinking_illu</title>
<desc>Created with Sketch.</desc>
<g id="Page-1">
	<g id="ui_illustrations" transform="translate(-607.000000, -5.000000)">
		<g id="systems_thinking_illu" transform="translate(607.000000, 5.000000)">
			<g id="Capa_1">
				<g id="Group">
					<path id="Shape" class="st0" d="M91.8,108c4.1-2.6,7.9-5.7,11.1-9.3l11.7,6.8L125.2,87l-11.6-6.7c1.5-4.5,2.3-9.3,2.5-14.3
						l13.2-2.3l-3.7-21l-13.2,2.3c-1.8-4.5-4.3-8.8-7.3-12.6l8.6-10.3L97.5,8.3l-8.6,10.3c-4.2-2.3-8.8-4-13.6-5V0.2H54v13.5
						c-4.8,1-9.4,2.7-13.6,5L31.8,8.3L15.5,22l8.6,10.3c-3,3.8-5.4,8-7.3,12.6L3.7,42.6L0,63.6l13.2,2.3c0.2,5,1,9.8,2.5,14.3
						L4.1,87l10.6,18.4l11.7-6.8c3.2,3.6,7,6.8,11.1,9.3l-4.6,12.7l19.9,7.3l4.6-12.7c2.4,0.3,4.8,0.5,7.2,0.5
						c2.5,0,4.9-0.2,7.2-0.5l4.6,12.7l19.9-7.3L91.8,108z M64.7,91.4c-14.9,0-27.1-12.2-27.1-27.2c0-15,12.2-27.2,27.1-27.2
						s27.1,12.2,27.1,27.2C91.8,79.2,79.6,91.4,64.7,91.4z"/>
					<path id="Shape_1_" class="st0" d="M183.1,124l-9.2,3c-1.7-3-3.9-5.8-6.4-8.2l5.1-8.2l-12.9-8.1l-5.1,8.2
						c-3.2-1.2-6.6-1.9-10.1-2.2l-1.3-9.6l-15.1,2.1l1.3,9.6c-3.3,1.2-6.4,2.9-9.2,4.9l-7.1-6.5L103,120.3l7.1,6.5
						c-1.7,3-3.1,6.2-3.9,9.6l-9.6-0.3l-0.5,15.2l9.6,0.3c0.6,3.5,1.7,6.8,3.2,9.9l-7.6,5.9l9.3,12l7.6-5.9c2.6,2.2,5.6,4.1,8.8,5.5
						l-2,9.5l14.9,3.2l2-9.4c1.7,0,3.4-0.1,5.2-0.4c1.7-0.2,3.4-0.6,5.1-1.1l4.5,8.5l13.4-7.1l-4.5-8.5c2.7-2.2,5-4.8,6.9-7.7
						l8.9,3.6l5.7-14.1l-8.9-3.6c0.6-3.4,0.7-6.9,0.4-10.4l9.2-3L183.1,124z M144.7,164.6c-10.6,1.5-20.4-6-21.9-16.6
						c-1.5-10.6,5.9-20.5,16.5-22c10.6-1.5,20.4,6,21.9,16.6C162.7,153.3,155.3,163.2,144.7,164.6z"/>
					<path id="Shape_2_" class="st0" d="M203.6,71.2l0.4-12l-7.6-0.2c-0.5-2.7-1.3-5.3-2.6-7.8l6-4.7l-7.4-9.4l-6,4.7
						c-2.1-1.8-4.5-3.2-7-4.3l1.5-7.5l-11.7-2.4l-1.5,7.5c-2.7,0-5.4,0.4-8.1,1.2l-3.6-6.7l-10.6,5.7l3.6,6.7
						c-2.1,1.8-3.9,3.9-5.4,6.1l-7.1-2.8L132,56.3l7.1,2.8c-0.5,2.7-0.6,5.5-0.3,8.2l-7.2,2.4l3.8,11.4l7.2-2.4
						c1.4,2.4,3.1,4.6,5.1,6.4l-4,6.5l10.2,6.3l4-6.5c2.6,0.9,5.3,1.5,8,1.7l1.1,7.5l11.9-1.7l-1.1-7.5c1.3-0.5,2.5-1,3.7-1.7
						c1.2-0.7,2.4-1.4,3.5-2.2l5.7,5.1l8-9l-5.7-5.1c1.4-2.4,2.4-5,3-7.6L203.6,71.2z M175,77.6c-7.4,4-16.8,1.2-20.8-6.2
						c-4-7.5-1.2-16.8,6.2-20.8c7.4-4,16.7-1.2,20.8,6.2C185.2,64.2,182.4,73.6,175,77.6z"/>
				</g>
			</g>
			<circle id="Oval-6" class="st0" cx="64.5" cy="64.5" r="20.5"/>
			<circle id="Oval-6-Copy" class="st0" cx="168" cy="64" r="9"/>
		</g>
	</g>
</g>
</svg>
